X:132
T:The Morpeth Rant
S:Kathleen Hawkin, Swaledale Squeeze 2006
M:4/4
L:1/8
R:rant
Z:robin.beech@mcgill.ca
K:D
|: (3ABc | d2AG FDFA | BGBd cAce | dfaf gfed | c2 e2 e2  (3ABc |
d2AG FDFA | BGBd cAce | dfaf gfed | A2d2 d2 :|
A2 | dfaf dfaf | gfef g2ef | gfed cdeg | fefg f2f2 |
dfaf dfaf | gfef g2ef | gfed cAag | f2d2 d2 :|
